svgs/batterybot.svg

<svg xmlns="http://www.w3.org/2000/svg" viewBox="0 0 192 192"><path d="M175.5 78.371v33.644a5.99 5.99 0 0 1-.546 2.522c-.358.766-.873 1.403-1.492 1.846a3.503 3.503 0 0 1-2.039.676h-12.231v23.353c0 1.771-.377 3.511-1.092 5.044-.716 1.533-1.745 2.807-2.985 3.692-1.239.886-2.645 1.352-4.077 1.352H24.654c-2.162 0-4.237-1.064-5.766-2.955-1.528-1.891-2.388-4.458-2.388-7.133V51.588c0-2.675.86-5.242 2.388-7.133 1.529-1.891 3.604-2.955 5.766-2.955h126.384c1.432 0 2.838.466 4.077 1.352 1.24.885 2.269 2.159 2.985 3.692.715 1.533 1.092 3.273 1.092 5.044v21.739h12.231c.716 0 1.419.233 2.039.676.619.443 1.134 1.08 1.492 1.846a5.99 5.99 0 0 1 .546 2.522ZM71.538 41.904v106.059M159.192 73.327v43.732M44.195 43.412v103.123M130.018 41.954v106.554M100.994 43.336v106.14" fill="none" stroke="#000" stroke-width="12" stroke-linecap="round" stroke-linejoin="round"/></svg>

<svg
    xmlns="http://www.w3.org/2000/svg"
    viewBox="0 0 192 192"
    id="vector">
    <path
        id="path"
        d="M 175.5 78.371 L 175.5 112.015 C 175.5 112.9 175.312 113.77 174.954 114.537 C 174.596 115.303 174.081 115.94 173.462 116.383 C 172.842 116.825 172.139 117.059 171.423 117.059 L 159.192 117.059 L 159.192 140.412 C 159.192 142.183 158.815 143.923 158.1 145.456 C 157.384 146.989 156.355 148.263 155.115 149.148 C 153.876 150.034 152.47 150.5 151.038 150.5 L 24.654 150.5 C 22.492 150.5 20.417 149.436 18.888 147.545 C 17.36 145.654 16.5 143.087 16.5 140.412 L 16.5 51.588 C 16.5 48.913 17.36 46.346 18.888 44.455 C 20.417 42.564 22.492 41.5 24.654 41.5 L 151.038 41.5 C 152.47 41.5 153.876 41.966 155.115 42.852 C 156.355 43.737 157.384 45.011 158.1 46.544 C 158.815 48.077 159.192 49.817 159.192 51.588 L 159.192 73.327 L 171.423 73.327 C 172.139 73.327 172.842 73.56 173.462 74.003 C 174.081 74.446 174.596 75.083 174.954 75.849 C 175.312 76.616 175.5 77.486 175.5 78.371 Z"
        fill="none"
        stroke="#000000"
        stroke-width="12"
        stroke-linecap="round"
        stroke-linejoin="round"/>
    <path
        id="path_1"
        d="M 71.538 41.904 L 71.538 147.963"
        fill="none"
        stroke="#000000"
        stroke-width="12"
        stroke-linecap="round"
        stroke-linejoin="round"/>
    <path
        id="path_2"
        d="M 159.192 73.327 L 159.192 117.059"
        fill="none"
        stroke="#000000"
        stroke-width="12"
        stroke-linecap="round"
        stroke-linejoin="round"/>
    <path
        id="path_3"
        d="M 44.195 43.412 L 44.195 146.535"
        fill="none"
        stroke="#000000"
        stroke-width="12"
        stroke-linecap="round"
        stroke-linejoin="round"/>
    <path
        id="path_4"
        d="M 130.018 41.954 L 130.018 148.508"
        fill="none"
        stroke="#000000"
        stroke-width="12"
        stroke-linecap="round"
        stroke-linejoin="round"/>
    <path
        id="path_5"
        d="M 100.994 43.336 L 100.994 149.476"
        fill="none"
        stroke="#000000"
        stroke-width="12"
        stroke-linecap="round"
        stroke-linejoin="round"/>
</svg>
